packages/gestalt-icons-android/vr-theme/ic_vr_lightbulb_gestalt.svg

<svg width="24" height="24" viewBox="0 0 24 24" fill="none" xmlns="http://www.w3.org/2000/svg">
<path fill-rule="evenodd" clip-rule="evenodd" d="M12 0C6.47715 0 2 4.47715 2 10C2 12.9373 3.26756 15.5796 5.28236 17.4077L5.64017 18.7648C5.98747 20.0821 7.17874 21 8.54104 21H15.459C16.8213 21 18.0125 20.0821 18.3598 18.7648L18.7176 17.4077C20.7324 15.5796 22 12.9373 22 10C22 4.47715 17.5228 0 12 0ZM4 10C4 5.58172 7.58172 2 12 2C16.4183 2 20 5.58172 20 10C20 12.4419 18.9072 14.6275 17.1804 16.0964L16.9414 16.2997L16.4259 18.2549C16.3102 18.694 15.9131 19 15.459 19H13V15H14C15.6569 15 17 13.6569 17 12C17 10.3431 15.6569 9 14 9C13.2316 9 12.5308 9.28885 12 9.7639C11.4692 9.28885 10.7684 9 10 9C8.34315 9 7 10.3431 7 12C7 13.6569 8.34315 15 10 15H11V19H8.54104C8.08694 19 7.68985 18.694 7.57408 18.2549L7.05857 16.2997L6.81957 16.0964C5.0928 14.6275 4 12.4419 4 10ZM14 13H13V12C13 11.4477 13.4477 11 14 11C14.5523 11 15 11.4477 15 12C15 12.5523 14.5523 13 14 13ZM10 11C10.5523 11 11 11.4477 11 12V13H10C9.44772 13 9 12.5523 9 12C9 11.4477 9.44772 11 10 11Z" fill="black"/>
<path d="M8 22V24H16V22H8Z" fill="black"/>
</svg>

<svg xmlns="http://www.w3.org/2000/svg" width="24" height="24"><path d="M12 0a10 10 0 0 0-6.72 17.4l.36 1.36A3 3 0 0 0 8.54 21h6.92a3 3 0 0 0 2.9-2.24l.36-1.35A10 10 0 0 0 12 0M4 10a8 8 0 1 1 13.18 6.1l-.24.2-.51 1.95a1 1 0 0 1-.97.75H13v-4h1a3 3 0 1 0-2-5.24A3 3 0 1 0 10 15h1v4H8.54a1 1 0 0 1-.97-.75l-.51-1.95-.24-.2A8 8 0 0 1 4 10m10 3h-1v-1a1 1 0 1 1 1 1m-4-2a1 1 0 0 1 1 1v1h-1a1 1 0 1 1 0-2M8 22v2h8v-2z"/></svg>
